src/topics/icons/scribd.svg

<svg height="131" preserveAspectRatio="xMidYMid" viewBox="0 0 512 131" width="512" xmlns="http://www.w3.org/2000/svg"><path d="m512 114.85432c0 8.093754-6.556653 14.657713-14.629595 14.657713-8.072941 0-14.629594-6.563959-14.629594-14.657713 0-8.099738 6.556653-14.665691 14.629594-14.665691 8.072942 0 14.629595 6.565953 14.629595 14.665691zm-234.728187-73.4999835v66.7485395h-8.683834v21.409157h34.20603v-88.1576965zm-226.4224297 10.6587042c-11.8039658-4.3001809-20.8300597-8.2612936-20.8300597-16.7539513 0-7.86239 6.4233314-12.740981 16.758766-12.740981 6.2661308 0 10.4826857 1.1987053 13.1929017 2.4652242-.4099152 1.1947163-.6685995 2.6168077-.6685995 4.7389748 0 7.0645828 5.4224219 14.5819212 15.4673341 14.5819212 8.7017437 0 14.5519896-6.3824576 14.5519896-15.8763634 0-15.944177-18.6013949-28.4278652-42.3665267-28.4278652-24.9292115 0-42.35458717 15.1044849-42.35458717 36.7370273 0 23.7267862 16.48814237 31.5133844 39.80555147 39.9362341 12.8347234 4.4916543 20.7962316 8.8895671 20.7962316 16.9214909 0 9.0431447-7.1197892 14.2308857-19.5266885 14.2308857-6.3178677 0-12.1681137-1.380206-16.3846685-3.813518.7501846-2.018452 1.0824945-4.094746 1.0824945-6.5420191 0-6.8272356-5.9119323-14.2069521-15.4573847-14.2069521-8.7912881 0-14.9161375 6.8312243-14.9161375 16.6123406 0 16.5086256 20.8280697 30.4602796 45.4886476 30.4602796 27.2931883 0 44.9374511-15.076562 44.9374511-38.396467 0-23.9023035-17.1547524-31.9262496-39.5767154-39.9262613zm71.4804547 33.097032c0-16.941436 11.021943-23.0845516 18.424295-23.0845516 5.838307 0 9.658876 2.0663207 11.491555 3.5462529-1.176019 1.98654-1.914264 4.4397974-1.914264 6.6098331 0 7.8045485 6.582521 14.3964309 14.3729 14.3964309 8.890782 0 15.095227-6.5300519 15.095227-15.874369 0-14.169056-15.614585-29.3493325-38.868318-29.3493325-26.61663 0-43.0948231 22.5161138-43.0948231 43.3787719 0 26.4153966 19.2461161 44.8666826 46.7800791 44.8666826h31.778378v-21.415139h-30.114838c-14.104267 0-23.950191-9.4879227-23.950191-23.0745793zm125.993207-43.7557362c-8.228152 0-15.917048 4.8586458-23.389045 14.8232578v-13.3473145h-35.724309v21.4131454h11.959177v43.9172918h-11.959177v21.389212h50.463347v-21.389212h-14.000793v-30.0653643c3.040536-5.5507434 8.172435-10.726518 12.856612-13.0620984 2.278412 3.454505 6.516856 6.591882 12.741199 6.591882 7.816247 0 14.175903-6.6257888 14.175903-14.7694059 0-7.7128011-5.287111-15.5013939-17.122914-15.5013939zm107.57886 0h-15.19671v-33.62358468h-24.825738v121.82914918s28.42941.03989 38.733006.03989c22.931373 0 40.890036-19.544281 40.890036-44.4897183 0-25.3503241-16.659272-43.7557362-39.600594-43.7557362zm-15.19671 21.7761476h10.598098c11.451758 0 19.152592 8.9115063 19.152592 22.1590951 0 15.5552458-9.92154 22.6457578-19.152592 22.6457578h-10.598098zm133.218459 51.7238359c0-7.76067 3.766842-14.62979 9.575301-18.9140148v-88.20955338h-36.679451v21.32139758h12.156175v12.3021871h-13.917219c-22.923413 0-40.878096 19.5363039-40.878096 44.4857299 0 25.3622906 16.645343 43.7377856 39.598604 43.7377856h35.328323c-3.237535-4.038899-5.183637-9.156832-5.183637-14.723532zm-14.947975-6.739477h-10.598099c-11.459717 0-19.160551-9.0231992-19.160551-22.4502944 0-15.4834431 9.939449-22.5340645 19.160551-22.5340645h10.598099zm-181.703866-100.38409118h25.522196v22.47223438h-25.522196z" fill="#444"/></svg>

<?xml version="1.0" encoding="UTF-8" standalone="no"?>
<svg width="512px" height="131px" viewBox="0 0 512 131" version="1.1" xmlns="http://www.w3.org/2000/svg" xmlns:xlink="http://www.w3.org/1999/xlink" preserveAspectRatio="xMidYMid">
    <g>
        <path d="M512,114.85432 C512,122.948074 505.443347,129.512033 497.370405,129.512033 C489.297464,129.512033 482.740811,122.948074 482.740811,114.85432 C482.740811,106.754582 489.297464,100.188629 497.370405,100.188629 C505.443347,100.188629 512,106.754582 512,114.85432 Z M277.271813,41.3543365 L277.271813,108.102876 L268.587979,108.102876 L268.587979,129.512033 L302.794009,129.512033 L302.794009,41.3543365 L277.271813,41.3543365 Z M50.8493833,52.0130407 C39.0454175,47.7128598 30.0193236,43.7517471 30.0193236,35.2590894 C30.0193236,27.3966994 36.442655,22.5181084 46.7780896,22.5181084 C53.0442204,22.5181084 57.2607753,23.7168137 59.9709913,24.9833326 C59.5610761,26.1780489 59.3023918,27.6001403 59.3023918,29.7223074 C59.3023918,36.7868902 64.7248137,44.3042286 74.7697259,44.3042286 C83.4714696,44.3042286 89.3217155,37.921771 89.3217155,28.4278652 C89.3217155,12.4836882 70.7203206,0 46.9551888,0 C22.0259773,0 4.60060163,15.1044849 4.60060163,36.7370273 C4.60060163,60.4638135 21.088744,68.2504117 44.4061531,76.6732614 C57.2408765,81.1649157 65.2023847,85.5628285 65.2023847,93.5947523 C65.2023847,102.637897 58.0825955,107.825638 45.6756962,107.825638 C39.3578285,107.825638 33.5075825,106.445432 29.2910277,104.01212 C30.0412123,101.993668 30.3735222,99.917374 30.3735222,97.4701009 C30.3735222,90.6428653 24.4615899,83.2631488 14.9161375,83.2631488 C6.1248494,83.2631488 0,90.0943731 0,99.8754894 C0,116.384115 20.8280697,130.335769 45.4886476,130.335769 C72.7818359,130.335769 90.4260987,115.259207 90.4260987,91.939302 C90.4260987,68.0369985 73.2713463,60.0130524 50.8493833,52.0130407 Z M122.329838,85.1100727 C122.329838,68.1686367 133.351781,62.0255211 140.754133,62.0255211 C146.59244,62.0255211 150.413009,64.0918418 152.245688,65.571774 C151.069669,67.558314 150.331424,70.0115714 150.331424,72.1816071 C150.331424,79.9861556 156.913945,86.578038 164.704324,86.578038 C173.595106,86.578038 179.799551,80.0479861 179.799551,70.703669 C179.799551,56.534613 164.184966,41.3543365 140.931233,41.3543365 C114.314603,41.3543365 97.8364099,63.8704503 97.8364099,84.7331084 C97.8364099,111.148505 117.082526,129.599791 144.616489,129.599791 L176.394867,129.599791 L176.394867,108.184652 L146.280029,108.184652 C132.175762,108.184652 122.329838,98.6967293 122.329838,85.1100727 Z M248.323045,41.3543365 C240.094893,41.3543365 232.405997,46.2129823 224.934,56.1775943 L224.934,42.8302798 L189.209691,42.8302798 L189.209691,64.2434252 L201.168868,64.2434252 L201.168868,108.160717 L189.209691,108.160717 L189.209691,129.549929 L239.673038,129.549929 L239.673038,108.160717 L225.672245,108.160717 L225.672245,78.0953527 C228.712781,72.5446093 233.84468,67.3688347 238.528857,65.0332543 C240.807269,68.4877593 245.045713,71.6251363 251.270056,71.6251363 C259.086303,71.6251363 265.445959,64.9993475 265.445959,56.8557304 C265.445959,49.1429293 260.158848,41.3543365 248.323045,41.3543365 Z M355.901905,41.3543365 L340.705195,41.3543365 L340.705195,7.73075182 L315.879457,7.73075182 L315.879457,129.559901 C315.879457,129.559901 344.308867,129.599791 354.612463,129.599791 C377.543836,129.599791 395.502499,110.05551 395.502499,85.1100727 C395.502499,59.7597486 378.843227,41.3543365 355.901905,41.3543365 Z M340.705195,63.1304841 L351.303293,63.1304841 C362.755051,63.1304841 370.455885,72.0419904 370.455885,85.2895792 C370.455885,100.844825 360.534345,107.935337 351.303293,107.935337 L340.705195,107.935337 L340.705195,63.1304841 Z M473.923654,114.85432 C473.923654,107.09365 477.690496,100.22453 483.498955,95.9403052 L483.498955,7.73075182 L446.819504,7.73075182 L446.819504,29.0521494 L458.975679,29.0521494 L458.975679,41.3543365 L445.05846,41.3543365 C422.135047,41.3543365 404.180364,60.8906404 404.180364,85.8400664 C404.180364,111.202357 420.825707,129.577852 443.778968,129.577852 L479.107291,129.577852 C475.869756,125.538953 473.923654,120.42102 473.923654,114.85432 Z M458.975679,108.114843 L448.37758,108.114843 C436.917863,108.114843 429.217029,99.0916438 429.217029,85.6645486 C429.217029,70.1811055 439.156478,63.1304841 448.37758,63.1304841 L458.975679,63.1304841 L458.975679,108.114843 Z M277.271813,7.73075182 L302.794009,7.73075182 L302.794009,30.2029862 L277.271813,30.2029862 L277.271813,7.73075182 Z" fill="#444444"></path>
    </g>
</svg>
